Origami/64x64/apps/milkytracker.svg

<svg width="64" height="64" version="1" xmlns="http://www.w3.org/2000/svg">
 <path d="m54 58.2v-39.2h-44v39.2c0 1.5512 1.2265 2.8 2.75 2.8h38.5c1.5235 0 2.75-1.2488 2.75-2.8z" style="opacity:.2"/>
 <path d="m54 57.2v-39.2h-44v39.2c0 1.5512 1.2265 2.8 2.75 2.8h38.5c1.5235 0 2.75-1.2488 2.75-2.8z" style="fill:#cccccc"/>
 <path d="m20 10h24l10 8h-44z" style="fill:#b8b8b8"/>
 <rect x="20" y="4" width="24" height="6" style="fill:#a3a3a3"/>
 <path d="m44 10l10 8h-18z" style="fill:#a3a3a3"/>
 <path d="m36 18v42h15.428572c1.42457 0 2.571428-1.2488 2.571428-2.8v-39.2z" style="fill:#b8b8b8"/>
 <path d="m28.999969 46.943032v-15.971516m-11.982829 0 5.982829 8 6-8m-11.982829 15.971516v-15.971516" style="fill:none;opacity:.2;stroke-linecap:round;stroke-linejoin:round;stroke-width:4;stroke:#000000"/>
 <path d="M 28.999969,45.971516 V 30 m -11.982829,0 5.982829,8 6,-8 M 17.01714,45.971516 V 30" style="fill:none;stroke-linecap:round;stroke-linejoin:round;stroke-width:4;stroke:#3a86c5"/>
 <path d="m41.028485 30.971516h8m-4 16v-16" style="fill:none;opacity:.2;stroke-linecap:round;stroke-width:4;stroke:#000000"/>
 <path d="m41.028485 30h8m-4 16v-16" style="fill:none;stroke-linecap:round;stroke-width:4;stroke:#3a86c5"/>
 <path d="m20 4v1h24v-1h-24z" style="fill:#ffffff;opacity:.1"/>
</svg>

<svg xmlns="http://www.w3.org/2000/svg" width="64" height="64" version="1">
 <path style="opacity:0.2" d="M 54,58.2 V 19 H 10 v 39.2 c 0,1.5512 1.2265,2.8 2.75,2.8 h 38.5 C 52.7735,61 54,59.7512 54,58.2 Z"/>
 <path style="fill:#cccccc" d="M 54,57.2 V 18 H 10 v 39.2 c 0,1.5512 1.2265,2.8 2.75,2.8 h 38.5 C 52.7735,60 54,58.7512 54,57.2 Z"/>
 <path style="fill:#b8b8b8" d="m 20,10 h 24 l 10,8 H 10 Z"/>
 <rect style="fill:#a3a3a3" width="24" height="6" x="20" y="4"/>
 <path style="fill:#a3a3a3" d="m 44,10 v 0 l 10,8 H 36 Z"/>
 <path style="fill:#b8b8b8" d="M 36,18 V 60 H 51.428572 C 52.853142,60 54,58.7512 54,57.2 V 18 Z"/>
 <path style="opacity:0.2;fill:none;stroke:#000000;stroke-width:4;stroke-linecap:round;stroke-linejoin:round" d="M 28.999969,46.943032 V 30.971516 m -11.982829,0 5.982829,8 6,-8 M 17.01714,46.943032 V 30.971516"/>
 <path style="fill:none;stroke:#3a86c5;stroke-width:4;stroke-linecap:round;stroke-linejoin:round" d="M 28.999969,45.971516 V 30 m -11.982829,0 5.982829,8 6,-8 M 17.01714,45.971516 V 30"/>
 <path style="opacity:0.2;fill:none;stroke:#000000;stroke-width:4;stroke-linecap:round" d="m 41.028485,30.971516 h 8 m -4,16 v -16"/>
 <path style="fill:none;stroke:#3a86c5;stroke-width:4;stroke-linecap:round" d="m 41.028485,30 h 8 m -4,16 V 30"/>
 <path style="opacity:0.1;fill:#ffffff" d="M 20 4 L 20 5 L 44 5 L 44 4 L 20 4 z"/>
</svg>
